X:1
T:Bottom of the Punchbowl, The
D:CoMando Sessions II, disc 1, track 15
Z:Nigel Gatherer
M:4/4
L:1/8
K:C
ED|"C"C2 C2 c3 d|c2 C2 EFGE|"Dm"D2 D2 defe|"G"dcBA GFED|
"C"C2 C2 c3 d|edcB c2 G2|"F"ABcA "G"GAGF|E/F/E C2 C2:|
cd|"C"edcA GAcd|edcA c2 G2|"Dm"A2 d2 d2 cd|"G"e2 d2 d2 d2|
"C"edcA GAcd|egde c2 G2|"F"ABcA "G"GAGF|E/F/E C2 C2:|
